RawImage/test1.xmp
<x:xmpmeta xmlns:x="adobe:ns:meta/" x:xmptk="Adobe XMP Core 7.0-c000 1.000000, 0000/00/00-00:00:00        ">
 <rdf:RDF xmlns:rdf="http://www.w3.org/1999/02/22-rdf-syntax-ns#">
  <rdf:Description rdf:about=""
    xmlns:photoshop="http://ns.adobe.com/photoshop/1.0/"
    xmlns:xmp="http://ns.adobe.com/xap/1.0/"
    xmlns:photomechanic="http://ns.camerabits.com/photomechanic/1.0/"
    xmlns:aux="http://ns.adobe.com/exif/1.0/aux/"
    xmlns:exifEX="http://cipa.jp/exif/1.0/"
    xmlns:xmpMM="http://ns.adobe.com/xap/1.0/mm/"
    xmlns:stEvt="http://ns.adobe.com/xap/1.0/sType/ResourceEvent#"
    xmlns:stRef="http://ns.adobe.com/xap/1.0/sType/ResourceRef#"
    xmlns:dc="http://purl.org/dc/elements/1.1/"
    xmlns:crd="http://ns.adobe.com/camera-raw-defaults/1.0/"
    xmlns:tiff="http://ns.adobe.com/tiff/1.0/"
    xmlns:exif="http://ns.adobe.com/exif/1.0/"
    xmlns:dng="http://ns.adobe.com/dng/1.0/"
    xmlns:crs="http://ns.adobe.com/camera-raw-settings/1.0/"
   photoshop:DateCreated="2023-10-22T17:01:13"
   photoshop:SidecarForExtension="DNG"
   photoshop:EmbeddedXMPDigest="60828F7D377D57EE374CACB7A2A03706"
   xmp:CreateDate="2023-10-22T17:01:13.611-08:00"
   xmp:Label="Winner"
   xmp:CreatorTool="Adobe Photoshop Lightroom Classic 13.0.1 (Macintosh)"
   xmp:ModifyDate="2024-05-30T12:44:46-07:00"
   xmp:MetadataDate="2024-08-13T11:11:49+03:00"
   photomechanic:ColorClass="1"
   photomechanic:Tagged="False"
   photomechanic:Prefs="0:1:0:006780"
   photomechanic:PMVersion="PM6"
   aux:ImageNumber="6780"
   aux:LensInfo="200/10 700/10 40/10 40/10"
   aux:Lens="FE 20-70mm F4 G"
   aux:LensDistortInfo="33311/32768 -69472422/1073741824 35478958/1073741824 6551414/1073741824"
   exifEX:LensModel="FE 20-70mm F4 G"
   xmpMM:DocumentID="xmp.did:b45bb8f2-8130-4f5f-bdaa-f522d9acf5f2"
   xmpMM:PreservedFileName="tag @ryanbreitkreutz - free raws from @signatureeditsco - DSC06780.ARW"
   xmpMM:OriginalDocumentID="34F646645C72949D0E41074F4254B700"
   xmpMM:InstanceID="xmp.iid:411f2396-5a0c-4342-bb89-69dd842dac5c"
   dc:format="image/dng"
   crd:CameraProfile="Camera ST"
   crd:LookName=""
   tiff:Orientation="8"
   tiff:Make="SONY"
   tiff:Model="ILCE-1"
   exif:ExifVersion="0232"
   exif:ExposureTime="1/500"
   exif:ShutterSpeedValue="8965784/1000000"
   exif:FNumber="4/1"
   exif:ApertureValue="4/1"
   exif:ExposureProgram="1"
   exif:SensitivityType="2"
   exif:RecommendedExposureIndex="200"
   exif:BrightnessValue="20594/2560"
   exif:ExposureBiasValue="0/10"
   exif:MaxApertureValue="1024/256"
   exif:MeteringMode="5"
   exif:LightSource="0"
   exif:FocalLength="280/10"
   exif:FileSource="3"
   exif:SceneType="1"
   exif:FocalLengthIn35mmFilm="28"
   exif:CustomRendered="0"
   exif:ExposureMode="2"
   exif:WhiteBalance="0"
   exif:SceneCaptureType="0"
   exif:Contrast="0"
   exif:Saturation="0"
   exif:Sharpness="0"
   exif:DigitalZoomRatio="16/16"
   exif:FocalPlaneXResolution="78794663/32768"
   exif:FocalPlaneYResolution="78794663/32768"
   exif:FocalPlaneResolutionUnit="3"
   exif:DateTimeOriginal="2023-10-22T17:01:13.611-08:00"
   dng:DNGVersion="1.7"
   dng:DNGBackwardVersion="1.3"
   dng:CameraRawCompatibility="5.4"
   dng:LightroomCompatibility="2.4"
   dng:HasMosaicData="True"
   dng:LossyCompression="False"
   dng:FloatingPoint="False"
   dng:HasTransparency="False"
   dng:BitsPerSample="14"
   dng:ImageWidth="8640"
   dng:ImageLength="5760"
   dng:OriginalImageWidth="8640"
   dng:OriginalImageLength="5760"
   dng:PreviewWidth="1024"
   dng:PreviewLength="683"
   dng:HasFastLoadData="True"
   dng:OriginalRawFileName="tag @ryanbreitkreutz - free raws from @signatureeditsco - DSC06780.ARW"
   dng:HasEmbeddedOriginalRawFile="False"
   dng:IsAppleProRAW="False"
   dng:IsSamsungGalaxyRaw="False"
   dng:IsGooglePixelRaw="False"
   dng:IsAdobeCameraDNG="False"
   crs:Version="15.3.1"
   crs:ProcessVersion="11.0"
   crs:WhiteBalance="As Shot"
   crs:Temperature="5800"
   crs:Tint="+12"
   crs:Exposure2012="-0.66"
   crs:Contrast2012="0"
   crs:Highlights2012="0"
   crs:Shadows2012="0"
   crs:Whites2012="0"
   crs:Blacks2012="0"
   crs:Texture="0"
   crs:Clarity2012="0"
   crs:Dehaze="0"
   crs:Vibrance="0"
   crs:Saturation="0"
   crs:ParametricShadows="0"
   crs:ParametricDarks="0"
   crs:ParametricLights="0"
   crs:ParametricHighlights="0"
   crs:ParametricShadowSplit="25"
   crs:ParametricMidtoneSplit="50"
   crs:ParametricHighlightSplit="75"
   crs:Sharpness="40"
   crs:SharpenRadius="+1.0"
   crs:SharpenDetail="25"
   crs:SharpenEdgeMasking="0"
   crs:LuminanceSmoothing="0"
   crs:LuminanceNoiseReductionDetail="70"
   crs:ColorNoiseReduction="25"
   crs:ColorNoiseReductionDetail="50"
   crs:ColorNoiseReductionSmoothness="50"
   crs:GrayMixerOrange="+4"
   crs:GrayMixerYellow="+38"
   crs:GrayMixerGreen="+14"
   crs:HueAdjustmentRed="0"
   crs:HueAdjustmentOrange="0"
   crs:HueAdjustmentYellow="0"
   crs:HueAdjustmentGreen="0"
   crs:HueAdjustmentAqua="0"
   crs:HueAdjustmentBlue="0"
   crs:HueAdjustmentPurple="0"
   crs:HueAdjustmentMagenta="0"
   crs:SaturationAdjustmentRed="0"
   crs:SaturationAdjustmentOrange="0"
   crs:SaturationAdjustmentYellow="0"
   crs:SaturationAdjustmentGreen="0"
   crs:SaturationAdjustmentAqua="0"
   crs:SaturationAdjustmentBlue="0"
   crs:SaturationAdjustmentPurple="0"
   crs:SaturationAdjustmentMagenta="0"
   crs:LuminanceAdjustmentRed="0"
   crs:LuminanceAdjustmentOrange="0"
   crs:LuminanceAdjustmentYellow="0"
   crs:LuminanceAdjustmentGreen="0"
   crs:LuminanceAdjustmentAqua="0"
   crs:LuminanceAdjustmentBlue="0"
   crs:LuminanceAdjustmentPurple="0"
   crs:LuminanceAdjustmentMagenta="0"
   crs:SplitToningShadowHue="0"
   crs:SplitToningShadowSaturation="0"
   crs:SplitToningHighlightHue="0"
   crs:SplitToningHighlightSaturation="0"
   crs:SplitToningBalance="0"
   crs:ColorGradeMidtoneHue="0"
   crs:ColorGradeMidtoneSat="0"
   crs:ColorGradeShadowLum="0"
   crs:ColorGradeMidtoneLum="0"
   crs:ColorGradeHighlightLum="0"
   crs:ColorGradeBlending="50"
   crs:ColorGradeGlobalHue="0"
   crs:ColorGradeGlobalSat="0"
   crs:ColorGradeGlobalLum="0"
   crs:AutoLateralCA="0"
   crs:LensProfileEnable="1"
   crs:LensManualDistortionAmount="0"
   crs:VignetteAmount="0"
   crs:DefringePurpleAmount="0"
   crs:DefringePurpleHueLo="30"
   crs:DefringePurpleHueHi="70"
   crs:DefringeGreenAmount="0"
   crs:DefringeGreenHueLo="40"
   crs:DefringeGreenHueHi="60"
   crs:PerspectiveUpright="0"
   crs:PerspectiveVertical="0"
   crs:PerspectiveHorizontal="0"
   crs:PerspectiveRotate="0.0"
   crs:PerspectiveAspect="0"
   crs:PerspectiveScale="100"
   crs:PerspectiveX="0.00"
   crs:PerspectiveY="0.00"
   crs:GrainAmount="0"
   crs:GrainSize="20"
   crs:GrainFrequency="60"
   crs:PostCropVignetteAmount="0"
   crs:ShadowTint="0"
   crs:RedHue="0"
   crs:RedSaturation="0"
   crs:GreenHue="0"
   crs:GreenSaturation="0"
   crs:BlueHue="0"
   crs:BlueSaturation="0"
   crs:OverrideLookVignette="False"
   crs:ToneCurveName2012="Linear"
   crs:CameraProfile="Adobe Standard"
   crs:CameraProfileDigest="3E81AC9EC67AD02110A553AFE7154535"
   crs:LensProfileSetup="LensDefaults"
   crs:LensProfileName="Adobe (Sony FE 20-70mm F4 G)"
   crs:LensProfileFilename="SONY (Sony FE 20-70mm F4 G) - RAW.lcp"
   crs:LensProfileDigest="89B9E7EA9F37F9926AE081E537FEF78A"
   crs:LensProfileIsEmbedded="False"
   crs:LensProfileDistortionScale="100"
   crs:LensProfileVignettingScale="100"
   crs:ToggleStyleDigest="FF2A0BD923C99B2991011DB61C0B98B7"
   crs:ToggleStyleAmount="1"
   crs:HasSettings="True"
   crs:HasCrop="False"
   crs:AlreadyApplied="False">
   <xmpMM:History>
    <rdf:Seq>
     <rdf:li
      stEvt:action="derived"
      stEvt:parameters="converted from image/x-sony-arw to image/dng, saved to new location"/>
     <rdf:li
      stEvt:action="saved"
      stEvt:instanceID="xmp.iid:b45bb8f2-8130-4f5f-bdaa-f522d9acf5f2"
      stEvt:when="2024-05-30T12:44:46-07:00"
      stEvt:softwareAgent="Adobe Photoshop Lightroom Classic 13.0.1 (Macintosh)"
      stEvt:changed="/"/>
     <rdf:li
      stEvt:action="saved"
      stEvt:instanceID="xmp.iid:1dd85b97-8c09-2847-9b5f-d6cdc1dcedd0"
      stEvt:when="2024-08-06T14:25:02+03:00"
      stEvt:softwareAgent="Adobe Photoshop Camera Raw 15.3.1 (Windows)"
      stEvt:changed="/metadata"/>
     <rdf:li
      stEvt:action="saved"
      stEvt:instanceID="xmp.iid:411f2396-5a0c-4342-bb89-69dd842dac5c"
      stEvt:when="2024-08-13T11:11:49+03:00"
      stEvt:softwareAgent="Adobe Photoshop Camera Raw 15.3.1 (Windows)"
      stEvt:changed="/metadata"/>
    </rdf:Seq>
   </xmpMM:History>
   <xmpMM:DerivedFrom
    stRef:documentID="34F646645C72949D0E41074F4254B700"
    stRef:originalDocumentID="34F646645C72949D0E41074F4254B700"/>
   <exif:ISOSpeedRatings>
    <rdf:Seq>
     <rdf:li>200</rdf:li>
    </rdf:Seq>
   </exif:ISOSpeedRatings>
   <exif:Flash
    exif:Fired="False"
    exif:Return="0"
    exif:Mode="2"
    exif:Function="False"
    exif:RedEyeMode="False"/>
   <crs:ToneCurvePV2012>
    <rdf:Seq>
     <rdf:li>0, 0</rdf:li>
     <rdf:li>255, 255</rdf:li>
    </rdf:Seq>
   </crs:ToneCurvePV2012>
   <crs:ToneCurvePV2012Red>
    <rdf:Seq>
     <rdf:li>0, 0</rdf:li>
     <rdf:li>255, 255</rdf:li>
    </rdf:Seq>
   </crs:ToneCurvePV2012Red>
   <crs:ToneCurvePV2012Green>
    <rdf:Seq>
     <rdf:li>0, 0</rdf:li>
     <rdf:li>255, 255</rdf:li>
    </rdf:Seq>
   </crs:ToneCurvePV2012Green>
   <crs:ToneCurvePV2012Blue>
    <rdf:Seq>
     <rdf:li>0, 0</rdf:li>
     <rdf:li>255, 255</rdf:li>
    </rdf:Seq>
   </crs:ToneCurvePV2012Blue>
   <crs:Look>
    <rdf:Description
     crs:Name="Adobe Color"
     crs:Amount="1"
     crs:UUID="B952C231111CD8E0ECCF14B86BAA7077"
     crs:SupportsAmount="false"
     crs:SupportsMonochrome="false"
     crs:SupportsOutputReferred="false">
    <crs:Group>
     <rdf:Alt>
      <rdf:li xml:lang="x-default">Profiles</rdf:li>
     </rdf:Alt>
    </crs:Group>
    <crs:Parameters>
     <rdf:Description
      crs:Version="15.3.1"
      crs:ProcessVersion="11.0"
      crs:ConvertToGrayscale="False"
      crs:CameraProfile="Adobe Standard"
      crs:LookTable="E1095149FDB39D7A057BAB208837E2E1">
     <crs:ToneCurvePV2012>
      <rdf:Seq>
       <rdf:li>0, 0</rdf:li>
       <rdf:li>22, 16</rdf:li>
       <rdf:li>40, 35</rdf:li>
       <rdf:li>127, 127</rdf:li>
       <rdf:li>224, 230</rdf:li>
       <rdf:li>240, 246</rdf:li>
       <rdf:li>255, 255</rdf:li>
      </rdf:Seq>
     </crs:ToneCurvePV2012>
     <crs:ToneCurvePV2012Red>
      <rdf:Seq>
       <rdf:li>0, 0</rdf:li>
       <rdf:li>255, 255</rdf:li>
      </rdf:Seq>
     </crs:ToneCurvePV2012Red>
     <crs:ToneCurvePV2012Green>
      <rdf:Seq>
       <rdf:li>0, 0</rdf:li>
       <rdf:li>255, 255</rdf:li>
      </rdf:Seq>
     </crs:ToneCurvePV2012Green>
     <crs:ToneCurvePV2012Blue>
      <rdf:Seq>
       <rdf:li>0, 0</rdf:li>
       <rdf:li>255, 255</rdf:li>
      </rdf:Seq>
     </crs:ToneCurvePV2012Blue>
     </rdf:Description>
    </crs:Parameters>
    </rdf:Description>
   </crs:Look>
  </rdf:Description>
 </rdf:RDF>
</x:xmpmeta>
